brandFactory_export/2.Regular/Ratón_2Regular.svg

<?xml version="1.0" encoding="UTF-8"?>
<svg width="24px" height="24px" viewBox="0 0 24 24" version="1.1" xmlns="http://www.w3.org/2000/svg" xmlns:xlink="http://www.w3.org/1999/xlink">
    <title>2.Regular/Ratón_2Regular</title>
    <g id="Symbols" stroke="none" stroke-width="1" fill="none" fill-rule="evenodd">
        <g id="2.Regular/Ratón_2Regular" fill="#5CB615" fill-rule="nonzero">
            <path d="M5.67563025,0.0302521008 C6.03865546,0.0302521008 6.33445378,0.32605042 6.33445378,0.68907563 C6.33445378,1.75462185 7.61176471,2.13445378 8.80840336,2.13445378 L11.1109244,2.13445378 C12.1529412,2.13445378 12.9630252,2.60168067 13.389916,3.4487395 C13.6722689,4.00413704 13.6997166,4.54521406 13.7022686,4.67804608 L13.7021026,5.1430836 C15.5068542,5.25213883 16.9353897,5.79796653 17.9546218,6.76638655 C19.1512605,7.90252101 19.7563025,9.59327731 19.7563025,11.7882353 L19.7563025,16.9613445 C19.7563025,19.2369748 19.2285714,20.8773109 18.1394958,21.9697479 C17.0336134,23.0890756 15.3563025,23.6336134 13.010084,23.6336134 C10.8756303,23.6336134 9.21176471,23.0789916 8.06554622,21.989916 C6.86890756,20.8537815 6.26386555,19.1630252 6.26386555,16.9680672 L6.26386555,11.7915966 C6.26386555,9.59663866 6.86890756,7.90588235 8.06554622,6.7697479 C9.10065359,5.78609323 10.5527235,5.23847777 12.3874016,5.13917089 L12.3882353,4.70588235 C12.3882353,4.68235294 12.3747899,4.33613445 12.2,4.01344538 C11.9915966,3.62689076 11.6453782,3.4487395 11.107563,3.4487395 L8.80504202,3.4487395 C7.72941176,3.4487395 6.80840336,3.21008403 6.14285714,2.75966387 C5.41680672,2.26554622 5.01680672,1.52941176 5.01680672,0.68907563 C5.01680672,0.32605042 5.31260504,0.0302521008 5.67563025,0.0302521008 Z M18.4418067,13.7582521 L19.1882353,13.6638655 C17.1714286,13.9394958 15.1109244,14.0806723 13.0739496,14.0806723 L12.9462185,14.0806723 C11.1593397,14.0806723 9.35694118,13.9720344 7.57759659,13.7592968 L7.57815126,16.9680672 C7.57815126,20.5680672 9.35630252,22.3193277 13.010084,22.3193277 C14.9865546,22.3193277 16.3613445,21.902521 17.2084034,21.0487395 C18.0386555,20.2117647 18.4420216,18.8773109 18.4420216,16.9647059 L18.4418067,13.7582521 Z M13.010084,6.44033613 C9.35294118,6.44033613 7.57815126,8.19159664 7.57815126,11.794958 L7.57780672,12.4342521 L7.85223314,12.4700394 C9.54076488,12.6676042 11.252581,12.7663866 12.9495798,12.7663866 L13.0705882,12.7663866 C14.8626628,12.7663866 16.6657161,12.6565985 18.4425453,12.4370224 L18.4420216,11.7915966 C18.4453782,8.18823529 16.6672269,6.44033613 13.010084,6.44033613 Z M13.010084,7.40168067 C13.3731092,7.40168067 13.6689076,7.69747899 13.6689076,8.0605042 L13.6689076,11.512605 C13.6689076,11.8756303 13.3731092,12.1714286 13.010084,12.1714286 C12.6470588,12.1714286 12.3512605,11.8756303 12.3512605,11.512605 L12.3512605,8.0605042 C12.3512605,7.69747899 12.6470588,7.40168067 13.010084,7.40168067 Z" id="Ratón_2Regular"></path>
        </g>
    </g>
</svg>

<svg width="24" height="24" viewBox="0 0 24 24" xmlns="http://www.w3.org/2000/svg"><path d="M5.676.03a.66.66 0 01.658.66c0 1.065 1.278 1.444 2.474 1.444h2.303c1.042 0 1.852.468 2.279 1.315.282.555.31 1.096.312 1.229v.465c1.805.11 3.233.655 4.253 1.623 1.196 1.137 1.801 2.827 1.801 5.022v5.173c0 2.276-.527 3.916-1.617 5.009-1.105 1.12-2.783 1.664-5.129 1.664-2.134 0-3.798-.555-4.944-1.644-1.197-1.136-1.802-2.827-1.802-5.022v-5.176c0-2.195.605-3.886 1.802-5.022 1.035-.984 2.487-1.532 4.321-1.63l.001-.434c0-.024-.013-.37-.188-.693-.208-.386-.555-.564-1.092-.564H8.805c-1.076 0-1.997-.239-2.662-.69-.726-.493-1.126-1.23-1.126-2.07A.66.66 0 015.676.03zm12.766 13.728l.746-.094a45.352 45.352 0 01-6.114.417h-.128c-1.787 0-3.59-.109-5.368-.322v3.21c0 3.6 1.778 5.35 5.432 5.35 1.977 0 3.351-.416 4.198-1.27.83-.837 1.234-2.172 1.234-4.084v-3.207zM13.01 6.44c-3.657 0-5.432 1.752-5.432 5.355v.64l.274.035c1.689.198 3.4.296 5.098.296h.12c1.793 0 3.596-.11 5.373-.329l-.001-.645c.003-3.604-1.775-5.352-5.432-5.352zm0 .962a.66.66 0 01.659.659v3.452a.66.66 0 01-1.318 0V8.06a.66.66 0 01.66-.66z" fill="#5CB615" fill-rule="nonzero"/></svg>
